X: 9731
T: Deildy Aberteifi
R: jig
M: 6/8
K: Dmajor
|:GBA G3|GBA GED|E3 A3|ABA GED|
GBA D3|GBA GED|E3 A2G|FEF G3:|
|:B3 AGE|DBA G3|DEF G2A|BGB A3|
B3 AGE|D3 GED|E3 A2G|FEF G3:|

